X:8
T:Babes in the Woods
R:polka 32
M:2/4
L:1/8
Q:1/4=120
R:polka
K:D
|: "D"AB/A/ FA | de f2 | "G"ga/g/ "A"fe | "D"df "A"A2 |
"D"AB/A/ FA | de f2 | "G"ga/g/ "A"fe | "D"d2 d2 :|
|: "A"ef/e/ ce | "D"fe "A"a2 | ef/e/ ce | "E7"fe "A"c/B/A |
"A"ef/e/ ce | "D"fe "A"a2 | ef/e/ "E7"dB | "A"BA A2 :|

